!!!COM: Music21
!!!OTL: waltz_Huntington-Castle
!!!OMV: waltz_Huntington-Castle
**kern
*clefG2
*k[f#]
*e:
*M3/4
=1
4B
=||
4.e
8f#
4e
=
2g
4a
=
2b
4a
=
4.f#
8e
4d
=
4.e
8f#
4e
=
2g
4a
=
4.b
8a
4b
=
2dd
4ee
=
4.ff#
8ee
4dd
=
8b
4.dd
4b
!!linebreak:original
=
4.a
8b
4a
=
4.f#
8e
4d
=
4.e
8f#
4e
=
4g
4a
4b
=
8a
4.g
4f#
=
2e'
4B
=||
4.e
8f#
4e
=
2g
4a
=
2b
4a
=
4.f#
8e
4d
!!linebreak:original
=
4.e
8f#
4e
=
2g
4a
=
4.b
8a
4b
=
2dd
4ee
=
4.ff#
8ee
4dd
=
8b
4.dd
4b
=
4.a
8b
4a
=
4.f#
8e
4d
=
4.e
8f#
4e
=
4g
4a
4b
!!linebreak:original
=
8a
4.g
4f#
=
2e'
4dd
=||
4.ee
8ff#
4ee
=
4.dd
8cc
4b
=
4a
4b
4a
=
4.f#
8e
4d
=
4e
4ee
4ee
=
4.ee
8ff#
4gg
=
4ff#
4ee
4dd#X
=
2ee
4ff#
!!linebreak:original
=
4.gg
8aa
4ff#
=
4.ee
8ff#
4dd
=
4b
4dd
4a
=
4.f#
8e
4d
=
4.e
8f#
4e
=
4g
4a
4b
=
8a
4.g
4f#
=
2e'
4dd
=||
4.ee
8ff#
4ee
=
4.dd
8cc
4b
!!linebreak:original
=
4a
4b
4a
=
4.f#
8e
4d
=
4e
4ee
4ee
=
4.ee
8ff#
4gg
=
4ff#
4ee
4dd#X
=
2ee
4ff#
=
4.gg
8aa
4ff#
=
4.ee
8ff#
4dd
=
4b
4dd
4a
=
4.f#
8e
4d
!!linebreak:original
=
4.e
8f#
4e
=
4g
4a
4b
=
8a
4.g
4f#
=
2.e'
=||
*-
